X:79
T: Der Jaeger im Tannenholz
N: Q0151B
O: Mitteleuropa, Deutschland (BRD) , Niedersachsen, Hadeln, Ottendorf
R: Ballade, abgewiesener Freier, Abschied
M: 6/8
L: 1/16
K: D
G2 | F4G2G4F2 | F6E4
A2 | B4A2E4G2 | F6z2
D2D2 | D2D2F2A4d2 | f6d4
c2 | B4AAA4G2 | F6z4

